!!!!SEGMENT: pl-kk--kk-i-3--013-002_anonim--missa-benedictus.krn
!!!cenid: 15xx:613
!!!COM: Anonim
!!!COM-rismid: pe30004985
!!!CDT:
!!!CNT:
!!!OPR: [Missa]
!!!OTL: Benedictus
!!!OMV: 002
!!!PDT:
!!!AGN:
!!!SMS-siglum: PL-Kk
!!!SMS-shelfmark: Kk.I.3
!!!SMS-shelfwork: 013-002 M
!!!SMS-variant:
!!!SMS-altvar:
!!!NIFC-rismid: 1001145493
!!!URL-scan: http://repozytorium.nifc.pl/skany/pl-kk-nut--i-3
!!!ONB-nifc: UWAGA: Discantus (s. 66r, skan 0068), Tenor (s. 45v, skan 0218), Bassus (s. 61v-62r, skan 0365)
!!!AIN: 1 bass 1 soprn 1 tenor
!!!key: ?
**kern	**text	**kern	**text	**kern	**text
*group1	*	*group1	*	*group1	*
*part3	*	*part2	*part2	*part1	*part1
*staff3	*	*staff2	*staff2	*staff1	*staff1
*I"[Bassus]	*	*I"[Tenor]	*	*I"[Discantus]	*
*I'[B]	*	*I'[T]	*	*I'[S]	*
*Ibass	*	*Itenor	*	*Isoprn	*
*ICvox	*	*ICvox	*	*ICvox	*
*clefF3	*	*clefC4	*	*clefC3	*
*k[]	*	*k[]	*	*k[]	*
*F:	*	*F:	*	*F:	*
*M2/1	*	*M2/1	*	*M2/1	*
*met(C|)	*	*met(C|)	*	*met(C|)	*
=1-	=1-	=1-	=1-	=1-	=1-
1G	Be-	1C	Be-	1c	Be-
*lig	*	*lig	*	*	*
*	*	*	*	*2\right	*
1G	-ne-	1E	-ne-	2B/	-ne-
.	.	.	.	2c/	.
=2-	=2-	=2-	=2-	=2-	=2-
1A	.	1D	.	1d	-dic-
*Xlig	*	*Xlig	*	*	*
1G	-dic-	1G	-dic-	1B	-tus
=3-	=3-	=3-	=3-	=3-	=3-
*lig	*	*	*	*	*
1C	-tus	1G	-tus	1c	.
1F	.	1A	.	1c,>	.
*Xlig	*	*	*	*	*
=4-	=4-	=4-	=4-	=4-	=4-
1D	qvi	1A	qvi	1d	qvi
*lig	*	*lig	*	*	*
1E	ve-	1G	ve-	1B	ve-
=5-	=5-	=5-	=5-	=5-	=5-
1AA	.	1A	.	2A/	.
.	.	.	.	2e\	.
*Xlig	*	*Xlig	*	*	*
*custos:AA	*	*	*	*	*
!LO:LB:g=original	!	!	!	!	!
1AA	-ni[t]	1A	-nit	1e	.
=6-	=6-	=6-	=6-	=6-	=6-
*	*	*lig	*	*	*
0D	in	1A	in	1f	-nit
.	.	1d	.	1f	in
*	*	*Xlig	*	*	*
=7-	=7-	=7-	=7-	=7-	=7-
1D	no-	1d	no-	1f	no-
*	*	*lig	*	*	*
*	*	*	*	*custos:e	*
!	!	!	!	!LO:LB:g=original	!
1A	-mi-	1c	-mi-	2e\	-mi-
.	.	.	.	2f\	.
=8-	=8-	=8-	=8-	=8-	=8-
*2\right	*	*	*	*	*
2G\	.	1B	.	1g	-ne
2A\	.	.	.	.	.
*	*	*Xlig	*	*	*
*	*	*lig	*	*	*
2B\	-ne	1G	-ne	1g	.
2c\	.	.	.	.	.
=9-	=9-	=9-	=9-	=9-	=9-
1d	.	1A	.	2f\	.
.	.	.	.	1g	do-
*	*	*Xlig	*	*	*
*lig	*	*lig	*	*	*
1d	do-	1A	do-	.	.
!	!	!	!	!LO:SIC:v:s:t=2f#\	!
.	.	.	.	2f\	.
=10-	=10-	=10-	=10-	=10-	=10-
1B	.	1G	.	1g	.
*Xlig	*	*Xlig	*	*	*
*	*	*lig	*	*	*
*	*	*custos:E	*	*	*
!	!	!LO:LB:g=original	!	!	!
2B\	.	1E	.	1g	.
1c\	.	.	.	.	.
=11-	=11-	=11-	=11-	=11-	=11-
.	.	1F	.	0c	.
2c\	.	.	.	.	.
*	*	*Xlig	*	*	*
2C/	.	1E	.	.	.
1C/	.	.	.	.	.
=12-	=12-	=12-	=12-	=12-	=12-
.	.	1D	.	1d	.
2BB/	.	.	.	.	.
*	*	*lig	*	*	*
*custos:C	*	*	*	*	*
!LO:LB:g=original	!	!	!	!	!
1C	.	1G	.	1c	-mi-
=13-	=13-	=13-	=13-	=13-	=13-
!	!	!	!	!LO:TX:a:t=Osanna\n vt su\npra	!
1AA	.	1A	.	[0cl	-ni
*	*	*Xlig	*	*	*
*	*	*lig	*	*	*
1BB	.	1G	-mi-	.	.
=14-	=14-	=14-	=14-	=14-	=14-
0AA	.	1A	.	0c_	.
*	*	*Xlig	*	*	*
.	.	[1A\;<l	-ni	.	.
=15-	=15-	=15-	=15-	=15-	=15-
1D	-mi-	0A_	.	0c_	.
2D/	.	.	.	.	.
2E/	.	.	.	.	.
=16-	=16-	=16-	=16-	=16-	=16-
00F\	-ni	00A]	.	00c]	.
*	*	*custos:A	*	*	*
=-	=-	=-	=-	=-	=-
*-	*-	*-	*-	*-	*-
!!!system-decoration: [(g1)]
!!!RDF**kern: > = above
!!!RDF**kern: < = below
!!!RDF**kern: l = terminal long
!!!ENC: Berenika Jozajtis
!!!END: 2022-01-02
!!!EED: Jędrzej Mróz
!!!EST: 2022-01-04
